X:1
T:Title
%%score { ( 1 3 5 ) | ( 2 4 6 ) }
L:1/8
M:4/4
K:C
V:1 treble nm="Grand Piano"
V:3 treble 
V:5 treble 
V:2 bass 
V:4 bass 
V:6 bass 
V:1
 z8[Q:1/4=92] | [Ee]>B d>c E>G d>c |[M:7/8] z z z2 [F=B]3 |[M:1/8] z | %4
[M:4/4] [Ff]>^c e>d [FA]>^G A>B |[M:15/16] z3/2 z3/2 z [EG]/- [EG]3 |[M:1/16] z/ | %7
[M:4/4] [Ee]>B d>c E>G d>c |[M:7/8] [Fc]>BB>_B z2 B,- |[M:1/8] B,- | %10
[M:4/4] [B,-G][B,-A][B,-B][B,-c] [B,-Ge]2 [B,Fd]2 |[M:3/4] [Ec]6 |[M:1/4] z2 | %13
[M:4/4] [^Fd]>A A>A [FA]>A e>e | d>G G>A [GB]>B z2 | [^Fd]>d A>B [EFc]>c B>A | %16
 [G,G]2- [G,-EG-]2 [G,FG]2 E>F |[M:3/4] [EG]>[EG] [FG]>G G>G |[M:1/4] ^F>G | %19
[M:19/16] A>A[GA]>[GA][^Fe]>d.c z/ z/ z/ z |[M:4/4] G>A B>c [Fd]>^c d>e |[M:3/4] [Ec]6 |] %22
V:2
 z4 z2 z z/ G/ | C,2 [E,G,CE]2 C,2 [E,G,CE]2 |[M:7/8] D,2 [F,G,B,F]2 D,2 z |[M:1/8] G | %4
[M:4/4] G,,2 [F,G,B,F]2 G,,2 [F,A,B,F]2 |[M:15/16] z3/2 z/ [E,G,C]-[E,G,C] z/ z3 |[M:1/16] G/ | %7
[M:4/4] C,2 [E,G,CE]2 C,2 [E,G,CE]2 |[M:7/8] D,2 [F,G,B,F]2 D,2 F, |[M:1/8][K:treble] A | %10
[M:4/4] F2 [^G,DF]2[K:bass] G,,2 =G,2 |[M:3/4] [C,G,C]6 |[M:1/4][K:treble] e>e | %13
[M:4/4] z z/ ^F/ F>F z z/ F/ F>F | [G,G]2 z z/ G/ z z/ G/ B>B | %15
 z z/ ^F/ [CF]>[DF][K:bass] z z/ [EF]/ [^F,A,CDF]2 | z2 C2 D2 C>D | %17
[M:3/4] [C,C]2 z z/[K:treble] F/ E>E |[M:1/4] _E>=E | %19
[M:19/16][K:bass] F>F[D,^C]-<[D,C] z/ z[K:treble] ^F/.F z/ z/ z/ z | %20
[M:4/4] z z/ ^F/ [^G,D=F]2[K:bass] z z/ E/[K:treble] [=G,B,]->[G,B,G] |[M:3/4][K:bass] [C,G,C]6 |] %22
V:3
 x8 | x8 |[M:7/8] [Fc]>BB>_B z2 [G,B,]- |[M:1/8] [G,B,] |[M:4/4] x8 | %5
[M:15/16] [Ed]>cE-E/.A z3/2 [G,C]3/2 |[M:1/16] x/ |[M:4/4] x8 |[M:7/8] z z z2 [F=B]3 |[M:1/8] x | %10
[M:4/4] x8 |[M:3/4] x6 |[M:1/4] x2 |[M:4/4] x8 | x8 | x8 | [B,D]2 z2 z4 |[M:3/4] x6 |[M:1/4] x2 | %19
[M:19/16] z/ z/ z/ z/ z/ z/ z/ z/ z/ z/ z/ z/ z/ z/ z/ z/ z A/- |[M:4/4] A2 z2 z4 |[M:3/4] x6 |] %22
V:4
 x8 | x8 |[M:7/8] z z z z z2 F,- |[M:1/8] F, |[M:4/4] x8 |[M:15/16] .C,3 z/ D/C,-<C,E,3/2 | %6
[M:1/16] x/ |[M:4/4] x8 |[M:7/8] x7 |[M:1/8][K:treble] x |[M:4/4] x4[K:bass] x4 |[M:3/4] x6 | %12
[M:1/4][K:treble] x2 |[M:4/4] D,2 [^F,A,C]2 D,2 z2 | z2 [B,D]2 G,2 z2 | %15
 D,2 [^F,A,]2[K:bass] D,2 z2 | G,,6 z2 |[M:3/4] z2 [D,B,]2[K:treble] [E,C]2 |[M:1/4] x2 | %19
[M:19/16][K:bass] [F,C]-<[F,C] z/ z/ z [D,=C]-<[D,C][K:treble] z/ z/ z/ z/ z ^F/- | %20
[M:4/4] F2 z2[K:bass] z2[K:treble] F2 |[M:3/4][K:bass] x6 |] %22
V:5
 x8 | x8 |[M:7/8] x7 |[M:1/8] x |[M:4/4] x8 |[M:15/16] x15/2 |[M:1/16] x/ |[M:4/4] x8 | %8
[M:7/8] z z z z z2 G,- |[M:1/8] G,- |[M:4/4] G,2 z2 z4 |[M:3/4] x6 |[M:1/4] x2 |[M:4/4] x8 | x8 | %15
 x8 | x8 |[M:3/4] x6 |[M:1/4] x2 |[M:19/16] x19/2 |[M:4/4] x8 |[M:3/4] x6 |] %22
V:6
 x8 | x8 |[M:7/8] x7 |[M:1/8] x |[M:4/4] x8 |[M:15/16] x15/2 |[M:1/16] x/ |[M:4/4] x8 |[M:7/8] x7 | %9
[M:1/8][K:treble] x |[M:4/4] x4[K:bass] x4 |[M:3/4] x6 |[M:1/4][K:treble] x2 |[M:4/4] x8 | x8 | %15
 x4[K:bass] x4 | x8 |[M:3/4] x7/2[K:treble] x5/2 |[M:1/4] x2 | %19
[M:19/16][K:bass] x11/2[K:treble] x4 |[M:4/4] G,,2 z2[K:bass] G,,2[K:treble] z2 | %21
[M:3/4][K:bass] x6 |] %22

